public/img/usage/leroy-merlin.svg

<svg fill="none" height="64" viewBox="0 0 107 64" width="107" xmlns="http://www.w3.org/2000/svg" xmlns:xlink="http://www.w3.org/1999/xlink"><clipPath id="a"><path d="m0 0h106.46v64h-106.46z"/></clipPath><g clip-path="url(#a)" opacity=".7"><path d="m11.0156 63.9572h83.9165l-41.7356-41.735z" fill="#7bb51c"/><g fill="#000"><path d="m9.41216 61.9048 6.53784-6.378-2.1776-2.2334-4.10643 4.0077-7.23388-7.4168-2.43209 2.3727z"/><path d="m17.3851 54.0743 6.699-6.5373-1.8396-1.8845-4.2536 4.1494-2.0426-2.0941 3.4086-3.3255-1.9251-1.9718-3.4086 3.3238-1.75-1.7936 4.1137-4.0143-1.8385-1.8839-6.67779 6.5154z"/><path d="m39.3115 23.0836c-2.7016-2.7695-7.3883-2.4382-9.6453-.2357-2.2577 2.2025-3.4098 6.5942-.2217 9.8623 3.5018 3.589 7.6682 2.2855 9.9258.0842 3.3286-3.2475 2.1437-7.4532-.0588-9.7108zm-1.9856 7.8142c-1.4944 1.458-3.3214 1.0624-5.4088-1.0777-1.7542-1.7978-1.6488-3.6042-.3731-4.849.8771-.8559 2.6586-1.6216 4.7782.5512 2.4181 2.4788 2.4981 3.9174 1.0037 5.3755z"/><path d="m46.8464 25.3833 2.4714-2.4121-3.7181-3.8108-2.2255-9.25952-2.8331 2.76462 1.4738 5.2531-4.9793-1.8336-2.6713 2.6059 8.489 2.7259z"/><path d="m33.6689 38.2541s-6.0151-2.0522-6.301-2.0026c-.0927.0152 1.2921-3.6696-1.819-5.3027 0 0-2.3086-1.2497-4.6189.8492l-4.9241 4.8527 9.4927 9.56 2.5114-2.4503-5.1367-5.264 8.3036 2.1892zm-9.3164-1.3126c-1.3956 1.3593-1.584 1.4665-1.584 1.4665s-2.188-2.2425-2.2655-2.3218c-.0776-.0794 1.5646-1.4872 1.8233-1.7398.1096-.1072 1.1321-.7741 1.9783.0927 0 0 1.4429 1.1406.0479 2.5024z"/><path d="m46.0793 11.7255-2.1965-2.21461 9.5891-9.51089 3.1383 3.16384-3.4546 6.79894 7.0431-3.18079 3.0197 3.04511-9.5891 9.5109-2.3145-2.3334 5.0616-5.0198-6.9243 3.1414-1.4314-1.4435 3.2184-6.91767z"/><path d="m62.7293 28.5119-6.6487-6.7027 9.5896-9.5109 6.6675 6.7227-1.9372 1.9214-4.1772-4.2112-1.5623 1.5489 3.2947 3.322-2.0171 2.0002-3.2747-3.302-2.0959 2.0783 4.1379 4.1718z"/><path d="m84.6531 31.438 2.4709 2.492-7.2563 7.1964 4.0591 4.0912-2.3333 2.3158-6.53-6.5839z"/><path d="m83.3193 49.2736 9.5897-9.5109 2.4121 2.4315-9.5897 9.5103z"/><path d="m90.1044 56.1154-2.2558-2.2745 9.5903-9.5103 3.2751 3.3001-2.7984 9.8749 6.3474-6.2961 2.197 2.2146-9.5893 9.5103-2.864-2.8858 2.466-10.3668z"/><path d="m80.3197 27.0686-5.8243-5.8728-9.6097 9.4915 2.4709 2.4909 5.2391-5.1962-1.8857 8.5775 2.5297 2.5508s1.9941-6.1357 2.0553-6.3913c0 0 2.1607 1.1903 4.5316-.8481 0 0 2.274-2.2158.4931-4.8023zm-3.5564 2.7816s-1.2242.822-2.3031-.2654l-1.6852-1.7797s2.036-2.0195 2.2928-2.2745c0 0 1.5689 1.5822 1.7652 1.7797.1956.1974 1.4326 1.1279-.0697 2.5399z"/></g></g></svg>

<svg width="107" height="64" viewBox="0 0 107 64" fill="none" xmlns="http://www.w3.org/2000/svg">
<g style="mix-blend-mode:luminosity" opacity="0.7" clip-path="url(#clip0_242_4791)">
<path d="M11.0156 63.9572H94.9321L53.1965 22.2222L11.0156 63.9572Z" fill="#7BB51C"/>
<path d="M9.41216 61.9048L15.95 55.5268L13.7724 53.2934L9.66597 57.3011L2.43209 49.8843L0 52.257L9.41216 61.9048Z" fill="black"/>
<path d="M17.3851 54.0743L24.0841 47.537L22.2445 45.6525L17.9909 49.8019L15.9483 47.7078L19.3569 44.3823L17.4318 42.4105L14.0232 45.7343L12.2732 43.9407L16.3869 39.9264L14.5484 38.0425L7.87061 44.5579L17.3851 54.0743Z" fill="black"/>
<path d="M39.3115 23.0836C36.6099 20.3141 31.9232 20.6454 29.6662 22.8479C27.4085 25.0504 26.2564 29.4421 29.4445 32.7102C32.9463 36.2992 37.1127 34.9957 39.3703 32.7944C42.6989 29.5469 41.514 25.3412 39.3115 23.0836ZM37.3259 30.8978C35.8315 32.3558 34.0045 31.9602 31.9171 29.8201C30.1629 28.0223 30.2683 26.2159 31.544 24.9711C32.4211 24.1152 34.2026 23.3495 36.3222 25.5223C38.7403 28.0011 38.8203 29.4397 37.3259 30.8978Z" fill="black"/>
<path d="M46.8464 25.3833L49.3178 22.9712L45.5997 19.1604L43.3742 9.90088L40.5411 12.6655L42.0149 17.9186L37.0356 16.085L34.3643 18.6909L42.8533 21.4168L46.8464 25.3833Z" fill="black"/>
<path d="M33.6689 38.2541C33.6689 38.2541 27.6538 36.2019 27.3679 36.2515C27.2752 36.2667 28.66 32.5819 25.5489 30.9488C25.5489 30.9488 23.2403 29.6991 20.93 31.798L16.0059 36.6507L25.4986 46.2107L28.01 43.7604L22.8733 38.4964L31.1769 40.6856L33.6689 38.2541ZM24.3525 36.9415C22.9569 38.3008 22.7685 38.408 22.7685 38.408C22.7685 38.408 20.5805 36.1655 20.503 36.0862C20.4254 36.0068 22.0676 34.599 22.3263 34.3464C22.4359 34.2392 23.4584 33.5723 24.3046 34.4391C24.3046 34.4391 25.7475 35.5797 24.3525 36.9415Z" fill="black"/>
<path d="M46.0793 11.7255L43.8828 9.51089L53.4719 0L56.6102 3.16384L53.1556 9.96278L60.1987 6.78199L63.2184 9.8271L53.6293 19.338L51.3148 17.0046L56.3764 11.9848L49.4521 15.1262L48.0207 13.6827L51.2391 6.76503L46.0793 11.7255Z" fill="black"/>
<path d="M62.7293 28.5119L56.0806 21.8092L65.6702 12.2983L72.3377 19.021L70.4005 20.9424L66.2233 16.7312L64.661 18.2801L67.9557 21.6021L65.9386 23.6023L62.6639 20.3003L60.568 22.3786L64.7059 26.5504L62.7293 28.5119Z" fill="black"/>
<path d="M84.6531 31.438L87.124 33.93L79.8677 41.1264L83.9268 45.2176L81.5935 47.5334L75.0635 40.9495L84.6531 31.438Z" fill="black"/>
<path d="M83.3193 49.2736L92.909 39.7627L95.3211 42.1942L85.7314 51.7045L83.3193 49.2736Z" fill="black"/>
<path d="M90.1044 56.1154L87.8486 53.8409L97.4389 44.3306L100.714 47.6307L97.9156 57.5056L104.263 51.2095L106.46 53.4241L96.8707 62.9344L94.0067 60.0486L96.4727 49.6818L90.1044 56.1154Z" fill="black"/>
<path d="M80.3197 27.0686L74.4954 21.1958L64.8857 30.6873L67.3566 33.1782L72.5957 27.982L70.71 36.5595L73.2397 39.1103C73.2397 39.1103 75.2338 32.9746 75.295 32.719C75.295 32.719 77.4557 33.9093 79.8266 31.8709C79.8266 31.8709 82.1006 29.6551 80.3197 27.0686ZM76.7633 29.8502C76.7633 29.8502 75.5391 30.6722 74.4602 29.5848L72.775 27.8051C72.775 27.8051 74.811 25.7856 75.0678 25.5306C75.0678 25.5306 76.6367 27.1128 76.833 27.3103C77.0286 27.5077 78.2656 28.4382 76.7633 29.8502Z" fill="black"/>
</g>
<defs>
<clipPath id="clip0_242_4791">
<rect width="106.46" height="64" fill="white"/>
</clipPath>
</defs>
</svg>
